inst/assets/svg/wi-moon-alt-waning-crescent-5.svg

<?xml version="1.0" encoding="UTF-8"?>
<svg xmlns="http://www.w3.org/2000/svg" xmlns:xlink="http://www.w3.org/1999/xlink" width="30pt" height="30pt" viewBox="0 0 30 30" version="1.1">
<g id="surface346">
<path style=" stroke:none;fill-rule:nonzero;fill:rgb(0%,0%,0%);fill-opacity:1;" d="M 3.738281 14.441406 C 3.738281 12.921875 4.039063 11.460938 4.628906 10.070313 C 5.21875 8.679688 6.03125 7.488281 7.03125 6.480469 C 8.03125 5.46875 9.230469 4.671875 10.621094 4.078125 C 12.011719 3.488281 13.460938 3.191406 14.988281 3.191406 C 16.519531 3.191406 17.96875 3.488281 19.359375 4.078125 C 20.75 4.671875 21.949219 5.480469 22.960938 6.480469 C 23.96875 7.480469 24.769531 8.679688 25.359375 10.070313 C 25.949219 11.460938 26.25 12.910156 26.25 14.441406 C 26.25 15.96875 25.949219 17.421875 25.359375 18.808594 C 24.769531 20.199219 23.960938 21.398438 22.960938 22.410156 C 21.960938 23.421875 20.761719 24.21875 19.359375 24.808594 C 17.960938 25.398438 16.511719 25.699219 14.988281 25.699219 C 13.46875 25.699219 12.011719 25.398438 10.621094 24.808594 C 9.230469 24.21875 8.039063 23.410156 7.03125 22.410156 C 6.019531 21.410156 5.21875 20.210938 4.628906 18.808594 C 4.039063 17.410156 3.738281 15.96875 3.738281 14.441406 Z M 4.941406 14.441406 C 4.941406 15.710938 5.171875 16.929688 5.640625 18.101563 C 6.109375 19.269531 6.730469 20.300781 7.53125 21.179688 C 8.328125 22.058594 9.28125 22.789063 10.378906 23.371094 C 11.480469 23.949219 12.660156 24.308594 13.898438 24.449219 C 12.148438 23.410156 10.921875 22.058594 10.199219 20.378906 C 9.480469 18.699219 9.121094 16.71875 9.121094 14.449219 C 9.121094 12.378906 9.558594 10.449219 10.441406 8.671875 C 11.320313 6.890625 12.539063 5.46875 14.101563 4.429688 C 12.839844 4.539063 11.640625 4.878906 10.511719 5.449219 C 9.378906 6.019531 8.410156 6.75 7.589844 7.640625 C 6.769531 8.53125 6.128906 9.558594 5.660156 10.75 C 5.191406 11.941406 4.941406 13.148438 4.941406 14.441406 Z M 4.941406 14.441406 "/>
</g>
</svg>

<?xml version="1.0" encoding="utf-8"?>
<!-- Generator: Adobe Illustrator 22.0.1, SVG Export Plug-In . SVG Version: 6.00 Build 0)  -->
<svg version="1.1" id="Layer_1" xmlns="http://www.w3.org/2000/svg" xmlns:xlink="http://www.w3.org/1999/xlink" x="0px" y="0px"
	 viewBox="0 0 30 30" style="enable-background:new 0 0 30 30;" xml:space="preserve">
<path d="M3.74,14.44c0-1.52,0.3-2.98,0.89-4.37s1.4-2.58,2.4-3.59s2.2-1.81,3.59-2.4s2.84-0.89,4.37-0.89s2.98,0.3,4.37,0.89
	s2.59,1.4,3.6,2.4s1.81,2.2,2.4,3.59s0.89,2.84,0.89,4.37s-0.3,2.98-0.89,4.37s-1.4,2.59-2.4,3.6s-2.2,1.81-3.6,2.4
	s-2.85,0.89-4.37,0.89s-2.98-0.3-4.37-0.89s-2.58-1.4-3.59-2.4s-1.81-2.2-2.4-3.6S3.74,15.97,3.74,14.44z M4.94,14.44
	c0,1.27,0.23,2.49,0.7,3.66s1.09,2.2,1.89,3.08s1.75,1.61,2.85,2.19s2.28,0.94,3.52,1.08c-1.75-1.04-2.98-2.39-3.7-4.07
	s-1.08-3.66-1.08-5.93c0-2.07,0.44-4,1.32-5.78s2.1-3.2,3.66-4.24c-1.26,0.11-2.46,0.45-3.59,1.02s-2.1,1.3-2.92,2.19
	s-1.46,1.92-1.93,3.11S4.94,13.15,4.94,14.44z"/>
</svg>
